img/vk-hover.svg

<svg width="28" height="28" viewBox="0 0 28 28" fill="none" xmlns="http://www.w3.org/2000/svg">
<circle cx="14" cy="14" r="14" fill="#4F779F"/>
<path fill-rule="evenodd" clip-rule="evenodd" d="M19.4675 15.3741C20.0174 15.8915 20.5977 16.3784 21.0909 16.948C21.3088 17.2011 21.515 17.4623 21.6728 17.7561C21.8964 18.1737 21.6939 18.6332 21.3054 18.6582L18.8905 18.6571C18.2676 18.7069 17.7708 18.4652 17.353 18.0548C17.0186 17.7265 16.709 17.3772 16.3875 17.0379C16.2557 16.8992 16.1178 16.7687 15.953 16.6655C15.6233 16.4593 15.3371 16.5224 15.1488 16.8538C14.9569 17.1909 14.9134 17.5641 14.8945 17.9398C14.8687 18.4879 14.6968 18.632 14.1256 18.6571C12.9048 18.7126 11.7463 18.5345 10.67 17.941C9.72118 17.4177 8.98538 16.679 8.34495 15.8427C7.09802 14.2143 6.14312 12.4249 5.28489 10.5854C5.09171 10.1709 5.23298 9.94847 5.70741 9.9406C6.49522 9.92585 7.28292 9.9269 8.07166 9.93955C8.39185 9.94406 8.60382 10.1211 8.72745 10.4126C9.15368 11.4228 9.67521 12.3839 10.3299 13.2747C10.5042 13.5119 10.682 13.749 10.9351 13.916C11.2152 14.1008 11.4284 14.0395 11.5601 13.7388C11.6437 13.5482 11.6803 13.3428 11.6992 13.1386C11.7616 12.4361 11.7698 11.7348 11.6603 11.0347C11.5931 10.5978 11.3378 10.3149 10.8855 10.2323C10.6547 10.1901 10.689 10.1073 10.8008 9.98034C10.9949 9.76133 11.1775 9.625 11.5414 9.625H14.2706C14.7003 9.70673 14.7957 9.89277 14.8545 10.3095L14.8568 13.2315C14.8521 13.3928 14.9404 13.8715 15.2419 13.9783C15.4832 14.0543 15.6422 13.8682 15.787 13.7208C16.4404 13.0523 16.9068 12.2623 17.3234 11.4443C17.5083 11.0846 17.6673 10.7111 17.8214 10.3378C17.9355 10.0609 18.1147 9.92459 18.4383 9.93062L21.065 9.93288C21.1429 9.93288 21.2217 9.93398 21.2972 9.94642C21.7398 10.0191 21.8611 10.2027 21.7244 10.6192C21.509 11.2729 21.0899 11.8175 20.6801 12.3647C20.242 12.949 19.7735 13.5132 19.3391 14.1008C18.94 14.6375 18.9717 14.908 19.4675 15.3741Z" fill="white"/>
</svg>

<svg width="28" height="28" fill="none" xmlns="http://www.w3.org/2000/svg"><circle cx="14" cy="14" r="14" fill="#4F779F"/><path fill-rule="evenodd" clip-rule="evenodd" d="M19.468 15.374c.55.518 1.13 1.004 1.623 1.574.218.253.424.514.582.808.223.418.02.877-.368.902H18.89c-.622.049-1.12-.193-1.537-.603-.334-.328-.644-.678-.966-1.017a2.263 2.263 0 00-.434-.372c-.33-.207-.616-.144-.804.188-.192.337-.236.71-.254 1.086-.026.548-.198.692-.77.717-1.22.056-2.379-.122-3.455-.716-.949-.523-1.685-1.262-2.325-2.098-1.247-1.629-2.202-3.418-3.06-5.258-.193-.414-.052-.637.422-.644a68.005 68.005 0 012.365-.001c.32.004.532.181.655.473.427 1.01.948 1.97 1.603 2.862.174.237.352.474.605.641.28.185.493.123.625-.177.084-.19.12-.396.14-.6.062-.703.07-1.404-.04-2.104-.067-.437-.322-.72-.774-.803-.231-.042-.197-.125-.085-.252.194-.219.377-.355.74-.355h2.73c.43.082.525.268.583.684l.003 2.923c-.005.16.083.64.385.746.241.076.4-.11.545-.257.653-.669 1.12-1.459 1.536-2.277a14.6 14.6 0 00.498-1.106c.114-.277.294-.413.617-.407l2.627.002c.078 0 .157.001.232.013.443.073.564.257.427.673-.215.654-.634 1.199-1.044 1.746-.438.584-.907 1.148-1.34 1.736-.4.536-.368.807.128 1.273z" fill="#fff"/></svg>
